svg/emoji_u1f44c_1f3fd.svg

<svg width="128" height="128" viewBox="0 0 128 128" fill="none" xmlns="http://www.w3.org/2000/svg">
<path d="M77.48 19.52C86.1 31.92 96.47 47.45 100.07 65.21C106.51 97 95.14 109.87 85.01 116.66C83.19 118.05 81.19 119.24 79.02 120.22C75.39 121.87 71.29 122.97 66.73 123.58C54.48 125.22 37.67 121.74 30.53 103.61C29.4155 100.778 28.7396 97.978 28.0603 95.1645C27.1975 91.591 26.3292 87.995 24.55 84.28C23.5181 82.1265 23.3771 80.3459 23.8318 78.9938C24.2132 78.2047 24.8968 77.6626 25.8022 77.3468C26.9323 76.9526 28.3974 76.92 29.9679 77.2453C32.8575 77.8438 35.9435 79.6183 37.716 82.2405C38.8323 84.2195 39.9853 87.137 40.66 91.37C41.66 97.68 47.66 101.86 52.26 102.6C61.73 104.13 70.65 97.68 72.18 88.21C73.71 78.73 67.07 70.55 57.6 69.02C53.25 68.32 49.02 69.3 45.57 71.49C45.1382 71.763 44.6315 72.1496 44.0491 72.5939C41.6302 74.4392 37.9068 77.2799 32.8318 77.1115C31.5591 77.0017 31.0316 76.8615 30.1523 76.6793C28.7906 76.3973 27.4876 75.735 26.5404 74.717C24.4473 72.4677 24.4556 69.0896 29.03 67.02C32.3571 65.5111 35.6117 62.5776 38.792 59.7112C42.5036 56.3658 46.114 53.1117 49.62 52.32C49.7022 52.3017 49.7848 52.2833 49.8679 52.2648C51.1501 51.9791 52.5472 51.6678 54.2 51.48C51.72 45.2 49.02 34.83 49.02 29.52C49.02 23.53 52.71 23.54 52.71 23.54C52.71 23.54 52.21 19.7 52.35 17.82C52.72 12.82 57.16 12.26 57.16 12.26C57.16 12.26 56.76 10.96 57.9 7.73C59.05 4.5 62.61 3.16 65.74 4.54C67.28 5.22 74.8 15.65 77.48 19.52Z" fill="#E0BB95" style="fill:#E0BB95;fill:color(display-p3 0.8784 0.7333 0.5843);fill-opacity:1;"/>
<path d="M77.48 19.52C86.1 31.92 96.47 47.45 100.07 65.21C106.51 97 95.14 109.87 85.01 116.66C83.19 118.05 81.19 119.24 79.02 120.22C75.39 121.87 71.29 122.97 66.73 123.58C54.48 125.22 37.67 121.74 30.53 103.61C29.4155 100.778 28.7396 97.978 28.0603 95.1645C27.1975 91.591 26.3292 87.995 24.55 84.28C23.5181 82.1265 23.3771 80.3459 23.8318 78.9938C24.2132 78.2047 24.8968 77.6626 25.8022 77.3468C26.9323 76.9526 28.3974 76.92 29.9679 77.2453C32.8575 77.8438 35.9435 79.6183 37.716 82.2405C38.8323 84.2195 39.9853 87.137 40.66 91.37C41.66 97.68 47.66 101.86 52.26 102.6C61.73 104.13 70.65 97.68 72.18 88.21C73.71 78.73 67.07 70.55 57.6 69.02C53.25 68.32 49.02 69.3 45.57 71.49C45.1382 71.763 44.6315 72.1496 44.0491 72.5939C41.6302 74.4392 37.9068 77.2799 32.8318 77.1115C31.5591 77.0017 31.0316 76.8615 30.1523 76.6793C28.7906 76.3973 27.4876 75.735 26.5404 74.717C24.4473 72.4677 24.4556 69.0896 29.03 67.02C32.3571 65.5111 35.6117 62.5776 38.792 59.7112C42.5036 56.3658 46.114 53.1117 49.62 52.32C49.7022 52.3017 49.7848 52.2833 49.8679 52.2648C51.1501 51.9791 52.5472 51.6678 54.2 51.48C51.72 45.2 49.02 34.83 49.02 29.52C49.02 23.53 52.71 23.54 52.71 23.54C52.71 23.54 52.21 19.7 52.35 17.82C52.72 12.82 57.16 12.26 57.16 12.26C57.16 12.26 56.76 10.96 57.9 7.73C59.05 4.5 62.61 3.16 65.74 4.54C67.28 5.22 74.8 15.65 77.48 19.52Z" fill="#F9DDBD" style="fill:#F9DDBD;fill:color(display-p3 0.9765 0.8667 0.7412);fill-opacity:1;"/>
<path d="M77.48 19.52C86.1 31.92 96.47 47.45 100.07 65.21C106.51 97 95.14 109.87 85.01 116.66C83.19 118.05 81.19 119.24 79.02 120.22C75.39 121.87 71.29 122.97 66.73 123.58C54.48 125.22 37.67 121.74 30.53 103.61C29.4155 100.778 28.7396 97.978 28.0603 95.1645C27.1975 91.591 26.3292 87.995 24.55 84.28C23.5181 82.1265 23.3771 80.3459 23.8318 78.9938C24.2132 78.2047 24.8968 77.6626 25.8022 77.3468C26.9323 76.9526 28.3974 76.92 29.9679 77.2453C32.8575 77.8438 35.9435 79.6183 37.716 82.2405C38.8323 84.2195 39.9853 87.137 40.66 91.37C41.66 97.68 47.66 101.86 52.26 102.6C61.73 104.13 70.65 97.68 72.18 88.21C73.71 78.73 67.07 70.55 57.6 69.02C53.25 68.32 49.02 69.3 45.57 71.49C45.1382 71.763 44.6315 72.1496 44.0491 72.5939C41.6302 74.4392 37.9068 77.2799 32.8318 77.1115C31.5591 77.0017 31.0316 76.8615 30.1523 76.6793C28.7906 76.3973 27.4876 75.735 26.5404 74.717C24.4473 72.4677 24.4556 69.0896 29.03 67.02C32.3571 65.5111 35.6117 62.5776 38.792 59.7112C42.5036 56.3658 46.114 53.1117 49.62 52.32C49.7022 52.3017 49.7848 52.2833 49.8679 52.2648C51.1501 51.9791 52.5472 51.6678 54.2 51.48C51.72 45.2 49.02 34.83 49.02 29.52C49.02 23.53 52.71 23.54 52.71 23.54C52.71 23.54 52.21 19.7 52.35 17.82C52.72 12.82 57.16 12.26 57.16 12.26C57.16 12.26 56.76 10.96 57.9 7.73C59.05 4.5 62.61 3.16 65.74 4.54C67.28 5.22 74.8 15.65 77.48 19.52Z" fill="#FFCA28" style="fill:#FFCA28;fill:color(display-p3 1.0000 0.7922 0.1569);fill-opacity:1;"/>
<path d="M77.48 19.52C86.1 31.92 96.47 47.45 100.07 65.21C106.51 97 95.14 109.87 85.01 116.66C83.19 118.05 81.19 119.24 79.02 120.22C75.39 121.87 71.29 122.97 66.73 123.58C54.48 125.22 37.67 121.74 30.53 103.61C29.4155 100.778 28.7396 97.978 28.0603 95.1645C27.1975 91.591 26.3292 87.995 24.55 84.28C23.5181 82.1265 23.3771 80.3459 23.8318 78.9938C24.2132 78.2047 24.8968 77.6626 25.8022 77.3468C26.9323 76.9526 28.3974 76.92 29.9679 77.2453C32.8575 77.8438 35.9435 79.6183 37.716 82.2405C38.8323 84.2195 39.9853 87.137 40.66 91.37C41.66 97.68 47.66 101.86 52.26 102.6C61.73 104.13 70.65 97.68 72.18 88.21C73.71 78.73 67.07 70.55 57.6 69.02C53.25 68.32 49.02 69.3 45.57 71.49C45.1382 71.763 44.6315 72.1496 44.0491 72.5939C41.6302 74.4392 37.9068 77.2799 32.8318 77.1115C31.5591 77.0017 31.0316 76.8615 30.1523 76.6793C28.7906 76.3973 27.4876 75.735 26.5404 74.717C24.4473 72.4677 24.4556 69.0896 29.03 67.02C32.3571 65.5111 35.6117 62.5776 38.792 59.7112C42.5036 56.3658 46.114 53.1117 49.62 52.32C49.7022 52.3017 49.7848 52.2833 49.8679 52.2648C51.1501 51.9791 52.5472 51.6678 54.2 51.48C51.72 45.2 49.02 34.83 49.02 29.52C49.02 23.53 52.71 23.54 52.71 23.54C52.71 23.54 52.21 19.7 52.35 17.82C52.72 12.82 57.16 12.26 57.16 12.26C57.16 12.26 56.76 10.96 57.9 7.73C59.05 4.5 62.61 3.16 65.74 4.54C67.28 5.22 74.8 15.65 77.48 19.52Z" fill="#BA8D68" style="fill:#BA8D68;fill:color(display-p3 0.7294 0.5529 0.4078);fill-opacity:1;"/>
<path d="M63.4 51.43C69.11 52.4 73.11 54.35 73.11 54.35C72.88 50.83 71.21 47.4 69.62 44.17C66.07 36.98 62.8 31.51 59.69 24.12C58.31 20.85 56.9 15.62 56.91 12.07C54.54 11.63 52.49 16.07 52.36 17.8C52.22 19.68 52.72 23.52 52.72 23.52C52.72 23.52 49.03 23.51 49.03 29.5C49.03 34.78 51.7 45.07 54.17 51.35C54.16 51.36 57.69 50.45 63.4 51.43Z" fill="#A47B62" style="fill:#A47B62;fill:color(display-p3 0.6431 0.4824 0.3843);fill-opacity:1;"/>
<path d="M76.49 85.2296C77.18 70.6296 65.25 64.8096 54.81 64.8096C45.6 64.8096 41.3 71.6796 37.39 74.0496C35.61 75.1296 33.56 75.8096 32.22 76.1796C31.81 76.2896 31.85 76.8796 32.27 76.9496C38.12 78.0096 44.04 72.4496 45.55 71.4896C48.26 69.7696 51.45 68.7996 54.8 68.7996C65.94 68.7996 73.93 78.7696 72.17 88.1996C70.47 97.3096 62.5 101.11 62.5 101.11C68 99.9896 76.01 95.3496 76.49 85.2296Z" fill="#91674D" style="fill:#91674D;fill:color(display-p3 0.5686 0.4039 0.3020);fill-opacity:1;"/>
<path d="M101.63 65.8598C96.8001 48.3998 86.1001 31.9198 77.4801 19.5198C74.8001 15.6498 67.2801 5.21979 65.7401 4.53979C65.3201 4.35979 68.9401 13.2798 74.2101 21.7998C82.7701 35.6498 93.5201 50.8098 97.5701 67.0498C102.72 87.7198 99.9401 102.83 84.3901 115.05C73.0901 123.93 55.8301 123.53 55.8301 123.53C55.8301 123.53 72.4801 126.31 86.2501 118.39C100.21 110.36 109.26 93.4998 101.63 65.8598Z" fill="#91674D" style="fill:#91674D;fill:color(display-p3 0.5686 0.4039 0.3020);fill-opacity:1;"/>
<path d="M75.7901 55.9998C76.5601 56.3598 77.3901 55.6298 77.1301 54.8198C75.9701 51.2798 73.2501 44.0198 68.6701 37.3398C65.3001 32.4298 59.6201 21.7498 57.3701 12.6198C57.2501 12.1498 56.5501 12.2298 56.5701 12.7198C56.7801 17.7198 58.1701 25.2898 63.1201 35.2998C66.3201 41.7698 69.9701 46.3698 70.0401 48.5898C70.1201 50.8098 64.0101 50.2098 62.6301 48.7398C60.6001 46.5798 55.2901 33.2098 52.8601 23.8798C52.7701 23.5198 52.4501 23.4598 52.2701 24.3998C52.0901 25.3398 52.0301 26.4098 52.5801 29.9398C53.7101 37.1798 57.7501 47.2398 58.1101 48.2098C58.6701 49.7198 55.0301 49.7798 54.2201 51.4498C54.2201 51.4498 59.7201 51.1598 65.6701 52.4098C69.5401 53.2198 73.4901 54.9098 75.7901 55.9998Z" fill="#91674D" style="fill:#91674D;fill:color(display-p3 0.5686 0.4039 0.3020);fill-opacity:1;"/>
</svg>

<?xml version="1.0" encoding="utf-8"?>
<!-- Generator: Adobe Illustrator 26.3.1, SVG Export Plug-In . SVG Version: 6.00 Build 0)  -->
<svg version="1.1" id="emoji_x5F_u1f44c" xmlns="http://www.w3.org/2000/svg" xmlns:xlink="http://www.w3.org/1999/xlink" x="0px"
	 y="0px" viewBox="0 0 128 128" style="enable-background:new 0 0 128 128;" xml:space="preserve">
<path style="fill:#BA8D68;" d="M100.07,65.21c-3.6-17.76-13.97-33.29-22.59-45.69C74.8,15.65,67.28,5.22,65.74,4.54
	c-3.13-1.38-6.69-0.04-7.84,3.19c-1.14,3.23-0.74,4.53-0.74,4.53s-4.44,0.56-4.81,5.56c-0.14,1.88,0.36,5.72,0.36,5.72
	s-3.69-0.01-3.69,5.98c0,5.31,2.7,15.68,5.18,21.96c-1.76,0.2-3.23,0.54-4.58,0.84c-6.51,1.47-13.38,11.43-20.59,14.7
	c-5.57,2.52-4.37,6.98-0.85,8.98c-3.57,0.23-6.05,3.23-3.63,8.28c3.18,6.64,3.45,12.9,5.98,19.33c7.14,18.13,23.95,21.61,36.2,19.97
	c4.56-0.61,8.66-1.71,12.29-3.36l0,0c0,0,0,0,0,0c2.17-0.98,4.17-2.17,5.99-3.56C95.14,109.87,106.51,97,100.07,65.21z M72.18,88.21
	c-1.53,9.47-10.45,15.92-19.92,14.39c-4.6-0.74-10.6-4.92-11.6-11.23c-1.46-9.16-5.16-12.16-5.88-12.82
	c-0.63-0.58-1.3-1.06-1.99-1.44c6.32,0.23,10.55-4.21,12.78-5.62c3.45-2.19,7.68-3.17,12.03-2.47
	C67.07,70.55,73.71,78.73,72.18,88.21z"/>
<path style="fill:#A47B62;" d="M63.4,51.43c5.71,0.97,9.71,2.92,9.71,2.92c-0.23-3.52-1.9-6.95-3.49-10.18
	c-3.55-7.19-6.82-12.66-9.93-20.05c-1.38-3.27-2.79-8.5-2.78-12.05c-2.37-0.44-4.42,4-4.55,5.73c-0.14,1.88,0.36,5.72,0.36,5.72
	s-3.69-0.01-3.69,5.98c0,5.28,2.67,15.57,5.14,21.85C54.16,51.36,57.69,50.45,63.4,51.43z"/>
<g>
	<path style="fill:#91674D;" d="M76.49,85.23c0.69-14.6-11.24-20.42-21.68-20.42c-9.21,0-13.51,6.87-17.42,9.24
		c-1.78,1.08-3.83,1.76-5.17,2.13c-0.41,0.11-0.37,0.7,0.05,0.77c5.85,1.06,11.77-4.5,13.28-5.46c2.71-1.72,5.9-2.69,9.25-2.69
		c11.14,0,19.13,9.97,17.37,19.4c-1.7,9.11-9.67,12.91-9.67,12.91C68,99.99,76.01,95.35,76.49,85.23z"/>
	<path style="fill:#91674D;" d="M101.63,65.86C96.8,48.4,86.1,31.92,77.48,19.52C74.8,15.65,67.28,5.22,65.74,4.54
		c-0.42-0.18,3.2,8.74,8.47,17.26c8.56,13.85,19.31,29.01,23.36,45.25c5.15,20.67,2.37,35.78-13.18,48
		c-11.3,8.88-28.56,8.48-28.56,8.48s16.65,2.78,30.42-5.14C100.21,110.36,109.26,93.5,101.63,65.86z"/>
	<path style="fill:#91674D;" d="M75.79,56c0.77,0.36,1.6-0.37,1.34-1.18c-1.16-3.54-3.88-10.8-8.46-17.48
		c-3.37-4.91-9.05-15.59-11.3-24.72c-0.12-0.47-0.82-0.39-0.8,0.1c0.21,5,1.6,12.57,6.55,22.58c3.2,6.47,6.85,11.07,6.92,13.29
		c0.08,2.22-6.03,1.62-7.41,0.15c-2.03-2.16-7.34-15.53-9.77-24.86c-0.09-0.36-0.41-0.42-0.59,0.52c-0.18,0.94-0.24,2.01,0.31,5.54
		c1.13,7.24,5.17,17.3,5.53,18.27c0.56,1.51-3.08,1.57-3.89,3.24c0,0,5.5-0.29,11.45,0.96C69.54,53.22,73.49,54.91,75.79,56z"/>
</g>
</svg>
